frontend/src/assets/figma/downloaded/nav-logo-fill.svg

<svg preserveAspectRatio="none" width="100%" height="100%" overflow="visible" style="display: block;" viewBox="0 0 60.8986 16.1297" fill="none" xmlns="http://www.w3.org/2000/svg">
<g id="Group">
<path id="Vector" d="M14.7276 12.0587C14.0713 9.70696 12.6745 7.66829 10.8037 6.21465C11.2962 5.60497 11.7244 4.94185 12.0813 4.23695C12.4827 3.44368 12.7054 2.76344 12.815 2.39694C12.9951 1.79205 13.1801 0.977547 13.2465 0C8.83149 0.00411022 4.41643 0.00890547 0 0.0130157C0 5.35219 0.00205511 10.6914 0.00205511 16.0298H15.1003C15.1256 15.7209 15.1393 15.4071 15.1393 15.0907C15.1393 14.0398 14.9954 13.0232 14.7269 12.0587H14.7283H14.7276ZM3.95403 12.0587V4.23695H7.18329C7.15589 4.26503 7.1278 4.29244 7.09903 4.31915C6.70856 4.70072 6.27356 5.03776 5.805 5.31999V9.75491C6.44413 9.53159 7.05724 9.25004 7.63678 8.91849C8.86368 9.65353 9.85287 10.7482 10.4598 12.0587H3.95403Z" fill="var(--fill-0, #EBEBEB)"/>
<path id="Vector_2" d="M60.8984 13.9795C60.8909 14.294 60.8738 14.6276 60.843 14.9776C60.8087 15.3599 60.7621 15.7202 60.708 16.0559H56.7163C56.7574 15.86 56.7944 15.6531 56.8252 15.4345C56.843 15.3078 56.8581 15.1838 56.8698 15.0639C56.8698 15.0639 56.9348 14.4865 56.9348 13.9795C56.9348 9.72272 54.5749 5.84678 51.0065 4.2575V16.0559H47.0614V0H50.7633C56.0032 1.12277 58.9536 6.10915 59.9168 8.61638C60.0285 8.90752 60.3586 10.0673 60.6306 11.4956C60.7347 12.0422 60.8608 12.7013 60.8909 13.548C60.8971 13.7288 60.8984 13.8781 60.8978 13.9802L60.8984 13.9795Z" fill="var(--fill-0, #EBEBEB)"/>
<path id="Vector_3" d="M29.3198 0.00137007C28.9725 0.37814 28.7252 0.732304 28.5546 1.007C28.4306 1.20703 28.245 1.50982 28.0778 1.93934C27.9052 2.38324 27.8422 2.72987 27.7819 3.06074C27.6264 3.91978 27.6565 4.58015 27.6737 4.8343C27.6839 4.99117 27.6983 5.11927 27.7093 5.20559H24.8171C24.8671 4.76374 24.9219 4.35683 24.9801 3.90402H21.3775V16.0312H17.4002V1.60093H17.4015V0H26.3091L29.3198 0.00137007Z" fill="var(--fill-0, #EBEBEB)"/>
<path id="Vector_4" d="M35.4551 0C35.7154 2.79769 37.5739 5.13229 40.1079 6.08038V0.0123306H44.0667V11.6716L44.0948 11.6579V15.3777L43.8427 15.4661C43.6529 15.5325 43.4597 15.5955 43.2618 15.6538C43.0254 15.725 42.7891 15.786 42.5534 15.8401C42.0068 15.9654 41.4587 16.0483 40.9141 16.0922C40.6436 16.1141 40.3737 16.1271 40.1037 16.1292C40.0325 16.1299 39.9613 16.1299 39.8907 16.1292C39.8469 16.1292 39.7934 16.1292 39.7386 16.1264C38.7426 16.1052 37.7643 15.9524 36.8252 15.6825C36.7731 15.6681 36.721 15.6531 36.6662 15.6353C36.5155 15.5914 36.3689 15.5428 36.2285 15.4941H36.2271L36.2258 15.4928C36.1394 15.4619 36.0531 15.4311 35.9654 15.3989C35.5017 15.227 35.0578 15.0153 34.7324 14.8488C34.5693 14.7653 34.4344 14.692 34.3399 14.6392C34.2926 14.6132 34.2556 14.592 34.2296 14.5769C34.2165 14.5693 34.207 14.5639 34.2001 14.5598C34.1967 14.5577 34.1939 14.5563 34.1919 14.555C34.1912 14.555 34.1905 14.5543 34.1898 14.5536L34.1015 14.5015C33.1917 13.9597 32.4971 13.3685 32.0696 12.9698L31.7319 12.6554L32.108 12.3875C32.4677 12.1313 32.8383 11.8552 33.215 11.5572L33.3418 11.4565C33.635 11.2223 33.9138 10.9893 34.1782 10.7592L34.4221 10.5475L34.6687 10.7558C35.251 11.2483 35.9497 11.7148 36.7806 12.0738L36.8615 12.108C36.9492 12.145 37.0382 12.1799 37.13 12.2149H37.1334L37.154 12.2231C37.2499 12.2594 37.3485 12.2937 37.4513 12.3272C37.4759 12.3354 37.4965 12.3416 37.5164 12.3485L37.576 12.367L37.5821 12.3683L37.5876 12.3704L37.6479 12.3896C37.6883 12.4019 37.7294 12.4142 37.7705 12.4252L37.8329 12.4423H37.8349L37.837 12.4437C37.9938 12.4875 38.1514 12.5266 38.3096 12.5595L38.3775 12.5732H38.3781H38.3788C38.8316 12.6649 39.294 12.7197 39.7619 12.7328C39.877 12.7355 39.9928 12.7362 40.1092 12.7348V10.244C35.351 9.15003 31.7518 5.02063 31.4517 0H35.4544H35.4551Z" fill="var(--fill-0, #EBEBEB)"/>
</g>
</svg>

<svg xmlns="http://www.w3.org/2000/svg" fill="none" overflow="visible" preserveAspectRatio="none" style="display:block" viewBox="0 0 60.899 16.13"><path fill="var(--fill-0, #ebebeb)" d="M14.728 12.059a11.23 11.23 0 0 0-3.924-5.844 11.2 11.2 0 0 0 2.011-3.818c.18-.605.365-1.42.431-2.397L0 .013.002 16.03H15.1q.04-.465.04-.94c0-1.05-.145-2.067-.413-3.031zm-10.774 0V4.237h3.23l-.085.082c-.39.382-.825.719-1.294 1.001v4.435c.64-.223 1.252-.505 1.832-.837a7.2 7.2 0 0 1 2.823 3.14zm56.944 1.921q-.01.472-.055.998-.052.573-.135 1.078h-3.992a9 9 0 0 0 .154-.992s.065-.578.065-1.085c0-4.256-2.36-8.132-5.928-9.721v11.798H47.06V0h3.702c5.24 1.123 8.19 6.11 9.154 8.616.111.292.442 1.451.714 2.88.104.546.23 1.205.26 2.052.006.18.007.33.007.432M29.32.001a6.6 6.6 0 0 0-.765 1.006c-.124.2-.31.503-.477.932-.173.444-.236.79-.296 1.122a7.3 7.3 0 0 0-.108 1.773c.01.157.024.285.035.372h-2.892c.05-.442.105-.85.163-1.302h-3.602v12.127H17.4V1.601h.002V0h8.907zM35.455 0a7.22 7.22 0 0 0 4.653 6.08V.012h3.959v11.66l.028-.014v3.72l-.252.088a12 12 0 0 1-1.29.374 11.5 11.5 0 0 1-2.662.29c-.044 0-.098 0-.152-.004a11.4 11.4 0 0 1-3.51-.632h-.002l-.001-.001-.26-.094a12 12 0 0 1-1.626-.76l-.11-.062-.03-.017-.008-.005-.002-.001-.088-.053a12 12 0 0 1-2.032-1.531l-.338-.315.376-.268q.54-.384 1.107-.83l.127-.1q.44-.353.836-.698l.244-.212.247.209a8.5 8.5 0 0 0 2.112 1.318l.08.034q.131.055.269.107h.003l.021.008q.143.053.297.104l.065.021.06.019.006.001.006.002.06.02.122.035.063.017h.002l.002.002q.235.066.473.115l.067.014h.001a8 8 0 0 0 1.731.162v-2.491A11.21 11.21 0 0 1 31.452 0z"/></svg>
